src/assets/fade.cube
LUT_3D_SIZE 6
0.110839 0.110839 0.110839
0.125228 0.112271 0.112271
0.215462 0.123982 0.123982
0.479610 0.147959 0.147959
0.750066 0.175259 0.175259
0.908821 0.193270 0.193270
0.115350 0.126219 0.115350
0.107364 0.128764 0.141817
0.211384 0.155264 0.136279
0.483752 0.216380 0.155618
0.753634 0.257761 0.182895
0.911298 0.266173 0.199406
0.138828 0.224844 0.138828
0.159581 0.226418 0.146379
0.193940 0.232600 0.175862
0.422507 0.364630 0.220846
0.702162 0.429931 0.236635
0.889292 0.424634 0.233356
0.202531 0.511451 0.202531
0.254479 0.512614 0.204385
0.320403 0.525614 0.257365
0.444760 0.533401 0.271991
0.668883 0.626961 0.308632
0.799601 0.612001 0.312075
0.275632 0.801153 0.275632
0.331216 0.802140 0.277466
0.439976 0.811779 0.313798
0.542921 0.826006 0.360507
0.696948 0.835897 0.381348
0.815032 0.806254 0.375243
0.322815 0.969030 0.322815
0.367676 0.969704 0.324234
0.483351 0.973722 0.336475
0.562299 0.991274 0.403593
0.691908 1.000687 0.429450
0.842166 1.010087 0.451495
0.110839 0.110839 0.124949
0.125368 0.112864 0.125368
0.215797 0.124554 0.150919
0.480052 0.148755 0.211440
0.750438 0.176048 0.253020
0.909021 0.193896 0.262209
0.115681 0.126368 0.126368
0.126770 0.126770 0.126770
0.216339 0.132844 0.132844
0.480195 0.154588 0.154588
0.750573 0.181139 0.181139
0.909045 0.198838 0.198838
0.139235 0.225134 0.163224
0.145152 0.225148 0.145152
0.194026 0.232676 0.182932
0.424944 0.345095 0.220373
0.719013 0.399573 0.228468
0.905468 0.394109 0.226136
0.203164 0.511814 0.253473
0.207352 0.511626 0.207352
0.313523 0.523830 0.256413
0.444841 0.533503 0.277378
0.667678 0.615647 0.310328
0.809322 0.596412 0.309550
0.276223 0.801520 0.330197
0.279762 0.801308 0.279762
0.427776 0.808820 0.305692
0.534479 0.825514 0.364290
0.696977 0.835934 0.385938
0.814527 0.800109 0.377814
0.323283 0.969244 0.366879
0.326679 0.968994 0.326679
0.465215 0.971739 0.331875
0.558586 0.989532 0.401715
0.687215 1.000357 0.433213
0.842146 1.010068 0.455643
0.117545 0.117545 0.212808
0.147442 0.120040 0.213696
0.216818 0.126524 0.216818
0.481524 0.151550 0.341323
0.751813 0.178829 0.410317
0.909925 0.196130 0.410465
0.124532 0.150893 0.215776
0.128952 0.128952 0.213826
0.217631 0.134724 0.217631
0.481773 0.157528 0.324683
0.751901 0.184014 0.383629
0.909969 0.201084 0.382768
0.140677 0.226161 0.226161
0.146819 0.226396 0.226396
0.230065 0.230065 0.230065
0.489538 0.245620 0.245620
0.757694 0.266596 0.266596
0.915164 0.281254 0.281254
0.205416 0.513207 0.374089
0.209824 0.513195 0.357834
0.280678 0.514932 0.280678
0.445474 0.534291 0.359511
0.664892 0.576614 0.380911
0.865740 0.547536 0.353396
0.278369 0.802646 0.466962
0.282075 0.802534 0.442500
0.344764 0.803703 0.344764
0.505818 0.825153 0.435536
0.697490 0.836528 0.457654
0.813517 0.782933 0.446452
0.325018 0.970192 0.486539
0.328481 0.969957 0.462803
0.387505 0.971132 0.387505
0.561240 0.982979 0.434230
0.674643 1.000400 0.500396
0.842879 1.010890 0.522357
0.129162 0.129162 0.470531
0.199981 0.132024 0.471767
0.335832 0.141259 0.476161
0.484246 0.156603 0.484246
0.754165 0.183911 0.582204
0.911610 0.200209 0.576162
0.138219 0.204106 0.474633
0.137254 0.137254 0.471207
0.318615 0.146753 0.476002
0.484802 0.162835 0.484802
0.754307 0.189208 0.572608
0.911888 0.205223 0.562886
0.165794 0.349367 0.489410
0.167196 0.330391 0.487221
0.235414 0.235414 0.482298
0.493219 0.250809 0.493219
0.760408 0.271366 0.541734
0.916956 0.284930 0.523932
0.209582 0.515887 0.515887
0.214300 0.516018 0.516018
0.285523 0.518502 0.518502
0.529030 0.529030 0.529030
0.787985 0.543456 0.543456
0.941384 0.553716 0.553716
0.282477 0.804914 0.632881
0.286273 0.804840 0.623176
0.348945 0.806223 0.591012
0.576856 0.814371 0.576856
0.699684 0.839198 0.720255
0.825111 0.790928 0.712295
0.328176 0.971757 0.639791
0.331674 0.971743 0.627268
0.390693 0.972889 0.591322
0.609833 0.980201 0.609833
0.691161 1.002472 0.746578
0.844622 1.012995 0.771627
0.140485 0.140485 0.735428
0.232074 0.143229 0.736360
0.398399 0.152661 0.740228
0.575581 0.168883 0.747229
0.757706 0.191353 0.757706
0.914193 0.206196 0.746113
0.149490 0.235846 0.738869
0.147610 0.147610 0.735790
0.370617 0.157223 0.739901
0.565636 0.173809 0.747117
0.758038 0.196868 0.758038
0.914413 0.211287 0.740842
0.178749 0.410255 0.751735
0.178303 0.380726 0.749236
0.242784 0.242784 0.744524
0.533490 0.257355 0.752440
0.764374 0.278419 0.764374
0.919751 0.290281 0.728847
0.225993 0.602377 0.774693
0.227608 0.591282 0.773395
0.290328 0.553218 0.771158
0.533899 0.533899 0.780538
0.791731 0.548318 0.791731
0.943828 0.557315 0.754297
0.288461 0.808217 0.808217
0.292483 0.808324 0.808324
0.355225 0.810153 0.810153
0.581537 0.818200 0.818200
0.828923 0.828923 0.828923
0.976832 0.836747 0.836747
0.332947 0.974096 0.805774
0.336514 0.974128 0.800488
0.395317 0.975457 0.786748
0.613205 0.982578 0.798332
0.855014 0.992685 0.855014
0.847173 1.016117 1.051961
0.147851 0.147851 0.891285
0.233160 0.150044 0.892031
0.393386 0.157756 0.894866
0.564685 0.171243 0.899923
0.739635 0.190193 0.907456
0.917563 0.214189 0.917563
0.155159 0.236300 0.893942
0.154665 0.154665 0.891828
0.364040 0.162387 0.894573
0.550952 0.175953 0.899831
0.734102 0.195065 0.907466
0.917834 0.219399 0.917834
0.179516 0.402671 0.903195
0.179678 0.372010 0.901236
0.248044 0.248044 0.899098
0.509516 0.259399 0.904417
0.721800 0.275938 0.912603
0.923411 0.297643 0.923411
0.219766 0.584631 0.920020
0.220895 0.569782 0.918548
0.285341 0.524229 0.917372
0.537463 0.537463 0.930294
0.747027 0.547993 0.937406
0.947006 0.562018 0.947006
0.273667 0.776109 0.944793
0.275980 0.770030 0.944058
0.337173 0.753746 0.943987
0.572384 0.766005 0.954168
0.831655 0.831655 0.972289
0.979145 0.839351 0.979145
0.339250 0.977355 0.977355
0.342970 0.977540 0.977540
0.401622 0.978931 0.978931
0.617729 0.985837 0.985837
0.857607 0.994988 0.994988
1.000024 1.000024 1.000024
